X: 23
M: 2/4
L: 1/8
K: G
V: 1
|:\
[gB][gB] {f}fe/d/ | ef [g2B2] | ag/a/ bg | ea {g}fe/d/ |\
[gB][gB] {g}fe/d/ | ef [g2B2] | ag/a/ bg | f/g/a/f/ [g2B2] :|
|:\
dd {e}dc/B/ | cc {d}cB/A/ | BAGA | B/c/d/B/ AD |\
dd {e}dc/B/ | cc {d}cB/A/ | Gd {d}cB/A/ | GD G2 :|
K: Gm
[|"Mineur"\
dd(de) | cc(cd) | BB BA/B/ | cBAD |\
dd(de) | cc(cd) | BA/B/ ce | d/c/B/A/ G2 |]
[|\
V: 2 clef=bass middle=d
|:\
g2dB | cAG2 | fdge | ^cAd2 | G2dB |
cAG2 | fd gb | d'd g2 :||: b2g2 | a2d2 | gdBd |
g2d2 | b2g2 | a2d2 | eBcd | g2G2 :|
K: Gm
[|"Mineur"\
f2fB | e2c2 | d2G2 |] [| BdBd | AFAF |
dBdB | AfF2 | dfBd | AFAF | cAdD | G2g2 |]


